X:186
T: Das artige Mdchen (2-90) S. 263
N: P0961
O: Lothringen
S: PINCK, Louis: Verklingende Weisen, Bd 2, Metz 1928]
R: Liebe, Warten auf einen Freier]
M: 3/4
L: 1/16
K: G
 | D2D2D4D4 | G4G4F4 | E8A4 | A8
G4 | F4F4E4 | D4E4F4 | G12- | G8
D4 | D4D4D4 | G8F4 | E8A4 | A8
G4 | F4F4E4 | D4E4F4 | G4
B6A2 | A4c6B2 | A4d6c2 | c2AAA4A4 | G4
B6A2 | A4c6B2 | B4d6B2 | c2AAA4A4 | G12 |
D4D2D2G4 | E4E2E2A4 | F4F2F2F2F2 | G4A4B4 |
D4D2D2G4 | E4E2E2A4 | F4F4E2F2 | G12

@@@ Tune index: 7736
